shared/images/iconfont/kb-iconfont-ellipsis-16.svg

<?xml version="1.0" encoding="UTF-8"?>
<svg width="16px" height="16px" viewBox="0 0 16 16" version="1.1" xmlns="http://www.w3.org/2000/svg" xmlns:xlink="http://www.w3.org/1999/xlink">
    <!-- Generator: sketchtool 41.2 (35397) - http://www.bohemiancoding.com/sketch -->
    <title>345BB0D8-0F3D-4272-85D6-ACD082E1A142</title>
    <desc>Created with sketchtool.</desc>
    <defs></defs>
    <g id="Icons" stroke="none" stroke-width="1" fill="none" fill-rule="evenodd">
        <g id="Style-guide---Desktop---Icons-2" transform="translate(-401.000000, -1271.000000)">
            <g id="kb-iconfont-ellipsis-16" transform="translate(401.000000, 1271.000000)">
                <g id="kb-iconfont-ellipsis">
                    <rect id="icon-area" fill="#D8D8D8" opacity="0" x="0" y="0" width="16" height="16"></rect>
                    <path d="M1,8.50403226 C1,8.29704198 1.03975701,8.10215145 1.11927224,7.91935484 C1.19878746,7.73655823 1.30592925,7.57728563 1.44070081,7.44153226 C1.57547237,7.30577889 1.73382658,7.19825308 1.91576819,7.11895161 C2.0977098,7.03965014 2.2911041,7 2.49595687,7 C2.70350508,7 2.89824707,7.03965014 3.08018868,7.11895161 C3.26213029,7.19825308 3.42115835,7.30577889 3.55727763,7.44153226 C3.69339691,7.57728563 3.80121254,7.73655823 3.88072776,7.91935484 C3.96024299,8.10215145 4,8.29704198 4,8.50403226 C4,8.71102254 3.96024299,8.90524103 3.88072776,9.08669355 C3.80121254,9.26814607 3.69339691,9.4260746 3.55727763,9.56048387 C3.42115835,9.69489315 3.26213029,9.80174692 3.08018868,9.88104839 C2.89824707,9.96034986 2.70350508,10 2.49595687,10 C2.2911041,10 2.0977098,9.96034986 1.91576819,9.88104839 C1.73382658,9.80174692 1.57547237,9.69489315 1.44070081,9.56048387 C1.30592925,9.4260746 1.19878746,9.26814607 1.11927224,9.08669355 C1.03975701,8.90524103 1,8.71102254 1,8.50403226 Z M6,8.50403226 C6,8.29704198 6.03975701,8.10215145 6.11927224,7.91935484 C6.19878746,7.73655823 6.30592925,7.57728563 6.44070081,7.44153226 C6.57547237,7.30577889 6.73382658,7.19825308 6.91576819,7.11895161 C7.0977098,7.03965014 7.2911041,7 7.49595687,7 C7.70350508,7 7.89824707,7.03965014 8.08018868,7.11895161 C8.26213029,7.19825308 8.42115835,7.30577889 8.55727763,7.44153226 C8.69339691,7.57728563 8.80121254,7.73655823 8.88072776,7.91935484 C8.96024299,8.10215145 9,8.29704198 9,8.50403226 C9,8.71102254 8.96024299,8.90524103 8.88072776,9.08669355 C8.80121254,9.26814607 8.69339691,9.4260746 8.55727763,9.56048387 C8.42115835,9.69489315 8.26213029,9.80174692 8.08018868,9.88104839 C7.89824707,9.96034986 7.70350508,10 7.49595687,10 C7.2911041,10 7.0977098,9.96034986 6.91576819,9.88104839 C6.73382658,9.80174692 6.57547237,9.69489315 6.44070081,9.56048387 C6.30592925,9.4260746 6.19878746,9.26814607 6.11927224,9.08669355 C6.03975701,8.90524103 6,8.71102254 6,8.50403226 Z M11,8.50403226 C11,8.29704198 11.039757,8.10215145 11.1192722,7.91935484 C11.1987875,7.73655823 11.3059292,7.57728563 11.4407008,7.44153226 C11.5754724,7.30577889 11.7338266,7.19825308 11.9157682,7.11895161 C12.0977098,7.03965014 12.2911041,7 12.4959569,7 C12.7035051,7 12.8982471,7.03965014 13.0801887,7.11895161 C13.2621303,7.19825308 13.4211583,7.30577889 13.5572776,7.44153226 C13.6933969,7.57728563 13.8012125,7.73655823 13.8807278,7.91935484 C13.960243,8.10215145 14,8.29704198 14,8.50403226 C14,8.71102254 13.960243,8.90524103 13.8807278,9.08669355 C13.8012125,9.26814607 13.6933969,9.4260746 13.5572776,9.56048387 C13.4211583,9.69489315 13.2621303,9.80174692 13.0801887,9.88104839 C12.8982471,9.96034986 12.7035051,10 12.4959569,10 C12.2911041,10 12.0977098,9.96034986 11.9157682,9.88104839 C11.7338266,9.80174692 11.5754724,9.69489315 11.4407008,9.56048387 C11.3059292,9.4260746 11.1987875,9.26814607 11.1192722,9.08669355 C11.039757,8.90524103 11,8.71102254 11,8.50403226 Z" id="ellipsis" fill="#000000"></path>
                </g>
            </g>
        </g>
    </g>
</svg>

<svg xmlns="http://www.w3.org/2000/svg" width="16" height="16" viewBox="0 0 16 16">
    <path fill="#000" fill-rule="evenodd" d="M1 8.504c0-.207.04-.402.12-.585a1.515 1.515 0 0 1 .796-.8c.182-.08.375-.119.58-.119.208 0 .402.04.584.119a1.529 1.529 0 0 1 .8.8c.08.183.12.378.12.585 0 .207-.04.401-.12.583a1.51 1.51 0 0 1-.8.794c-.182.08-.376.119-.584.119-.205 0-.398-.04-.58-.119a1.528 1.528 0 0 1-.796-.794A1.436 1.436 0 0 1 1 8.504zm5 0c0-.207.04-.402.12-.585a1.515 1.515 0 0 1 .796-.8c.182-.08.375-.119.58-.119.208 0 .402.04.584.119a1.529 1.529 0 0 1 .8.8c.08.183.12.378.12.585 0 .207-.04.401-.12.583a1.51 1.51 0 0 1-.8.794c-.182.08-.376.119-.584.119-.205 0-.398-.04-.58-.119a1.528 1.528 0 0 1-.796-.794A1.436 1.436 0 0 1 6 8.504zm5 0c0-.207.04-.402.12-.585a1.515 1.515 0 0 1 .796-.8c.182-.08.375-.119.58-.119.208 0 .402.04.584.119a1.529 1.529 0 0 1 .8.8c.08.183.12.378.12.585 0 .207-.04.401-.12.583a1.51 1.51 0 0 1-.8.794c-.182.08-.376.119-.584.119-.205 0-.398-.04-.58-.119a1.528 1.528 0 0 1-.796-.794 1.436 1.436 0 0 1-.12-.583z"/>
</svg>
